X: 6
T: The Trip To Nenagh
R: reel
M: 4/4
L: 1/8
K: Dmaj
dcAG FDDG, | A,DFA d=cAG | Ad ~d2 A=fed | =c2 Gc EcGc |dcAG FDDG, | A,DFA d=cAG | Ad ~d2 ADFA | G=CEG FD D2 :||:Adfd adfa | gfed ceAc | dcAG FADF | (E/F/G) AB =c2 Bc |Adde (ef)ed | cdef .g2 (e/f/g) | a2 ea caec | dcAG FD D2:|


Tune 831	Setting 2315

